icon-svg/ollama.svg

<svg xmlns="http://www.w3.org/2000/svg" viewBox="0 0 24 24"><path fill="#44739e" 
     d="M 16.158203 2.0019531 C 16.114723 2.0003223 16.070641 2.0010313 16.025391 2.0039062 C 15.195391 2.0529062 14.527672 3.0077203 14.263672 4.5117188 A 6 6 0 0 0 14.183594 5.1152344 C 14.183594 5.1452343 14.176922 5.1699219 14.169922 5.1699219 C 14.162922 5.1699219 14.107875 5.1414687 14.046875 5.1054688 C 13.406876 4.7264691 12.693999 4.5234375 12 4.5234375 C 11.306001 4.5234375 10.593124 4.7264691 9.953125 5.1054688 A 1 1 0 0 1 9.8300781 5.1699219 C 9.8230781 5.1699219 9.8164063 5.1452343 9.8164062 5.1152344 C 9.8164062 5.0352345 9.7783281 4.7437185 9.7363281 4.5117188 C 9.4963284 3.1607201 8.9477961 2.2650623 8.2167969 2.0390625 C 8.116797 2.0090625 7.8305155 1.9898594 7.7285156 2.0058594 A 1.4 1.4 0 0 0 7.1582031 2.2539062 C 6.6802036 2.6169059 6.3112967 3.3886103 6.1542969 4.3496094 A 9 9 0 0 0 6.0546875 5.6015625 C 6.0546875 6.055562 6.1075938 6.6341567 6.1835938 7.0351562 A 0.6 0.6 0 0 1 6.203125 7.2109375 L 6.0488281 7.3359375 C 5.7788284 7.5509373 5.4698123 7.8825472 5.2578125 8.1855469 A 4.6 4.6 0 0 0 4.4746094 10.134766 C 4.4316094 10.415765 4.419125 10.984625 4.453125 11.265625 C 4.5291249 11.914624 4.7255472 12.464797 5.0605469 12.966797 L 5.1699219 13.128906 L 5.1386719 13.181641 C 4.9146721 13.55764 4.7237655 14.102001 4.6347656 14.625 C 4.5637657 15.038 4.5546875 15.149126 4.5546875 15.703125 C 4.5546875 16.262124 4.5629063 16.372766 4.6289062 16.759766 C 4.7079062 17.221765 4.8678752 17.71111 5.046875 18.037109 C 5.1058749 18.143109 5.2505781 18.364953 5.2675781 18.376953 C 5.2735781 18.378953 5.2555156 18.431188 5.2285156 18.492188 A 6.2 6.2 0 0 0 4.7714844 20.054688 C 4.7204844 20.402687 4.7128906 20.51486 4.7128906 20.880859 C 4.7128906 21.347859 4.7379376 21.574313 4.8359375 21.945312 L 4.8496094 22 L 6.0800781 22 L 6.0410156 21.923828 C 5.7920159 21.463829 5.7684221 20.610765 5.9824219 19.759766 C 6.0804218 19.365766 6.1924377 19.077687 6.3984375 18.679688 L 6.5214844 18.439453 L 6.5214844 18.291016 C 6.5214844 18.153016 6.5196093 18.136875 6.4746094 18.046875 A 0.7 0.7 0 0 0 6.3125 17.839844 A 1.5 1.5 0 0 1 5.9921875 17.386719 C 5.6391879 16.61972 5.5703596 15.480765 5.8183594 14.509766 C 5.9223593 14.104766 6.0914846 13.745828 6.2714844 13.548828 A 0.66 0.66 0 0 0 6.4570312 13.105469 A 0.6 0.6 0 0 0 6.2695312 12.671875 A 2.62 2.62 0 0 1 5.5898438 11.230469 C 5.4738439 10.43047 5.685063 9.5581868 6.1640625 8.8671875 C 6.634062 8.1891882 7.2922976 7.7546718 8.0292969 7.6386719 C 8.1942967 7.6116719 8.5027814 7.6164375 8.6757812 7.6484375 C 8.8637811 7.6814375 8.9815626 7.6712812 9.1015625 7.6132812 C 9.2515624 7.5432813 9.3260626 7.454906 9.4140625 7.2539062 C 9.4910624 7.0749064 9.5528439 6.9764373 9.7148438 6.7734375 C 9.9098436 6.5314377 10.096438 6.3679685 10.398438 6.1679688 A 3.3 3.3 0 0 1 11.525391 5.6992188 C 11.66739 5.6702188 11.734 5.6660156 12 5.6660156 C 12.266 5.6660156 12.33261 5.6702188 12.474609 5.6992188 A 3.4 3.4 0 0 1 14.068359 6.5292969 C 14.166359 6.6202968 14.401563 6.9102501 14.476562 7.03125 C 14.504562 7.07825 14.554938 7.1789063 14.585938 7.2539062 C 14.673937 7.454906 14.748438 7.5432813 14.898438 7.6132812 C 15.014437 7.6692812 15.135406 7.6813906 15.316406 7.6503906 A 2 2 0 0 1 16.103516 7.6621094 C 17.056515 7.8551092 17.885907 8.6403604 18.253906 9.6933594 C 18.573906 10.616358 18.483812 11.584266 18.007812 12.322266 A 2.4 2.4 0 0 1 17.730469 12.671875 C 17.478469 12.939875 17.478516 13.272828 17.728516 13.548828 C 18.139515 13.997828 18.396359 15.103126 18.318359 16.078125 C 18.267359 16.721124 18.101 17.297047 17.875 17.623047 A 2 2 0 0 1 17.6875 17.839844 A 0.7 0.7 0 0 0 17.525391 18.046875 C 17.480391 18.136875 17.478516 18.153016 17.478516 18.291016 L 17.478516 18.439453 L 17.601562 18.679688 C 17.807562 19.077687 17.919578 19.365766 18.017578 19.759766 C 18.228578 20.599765 18.20975 21.435157 17.96875 21.910156 C 17.94875 21.950156 17.931641 21.988188 17.931641 21.992188 C 17.931641 21.996187 18.205016 22 18.541016 22 L 19.150391 22 L 19.164062 21.9375 L 19.195312 21.826172 C 19.210312 21.763172 19.243531 21.575484 19.269531 21.396484 A 8 8 0 0 0 19.269531 20.349609 C 19.177531 19.61961 19.022484 19.039187 18.771484 18.492188 C 18.744484 18.431188 18.726422 18.378953 18.732422 18.376953 C 18.739422 18.371953 18.781219 18.313047 18.824219 18.248047 C 19.137218 17.774047 19.329734 17.178577 19.427734 16.392578 C 19.453734 16.175578 19.453734 15.243156 19.427734 15.035156 C 19.358734 14.498157 19.274719 14.134625 19.136719 13.765625 A 5 5 0 0 0 18.861328 13.181641 L 18.830078 13.128906 L 18.939453 12.966797 C 19.274453 12.464797 19.470875 11.914624 19.546875 11.265625 C 19.580875 10.984625 19.568391 10.415765 19.525391 10.134766 A 4.6 4.6 0 0 0 18.742188 8.1855469 A 4.4 4.4 0 0 0 17.951172 7.3359375 L 17.796875 7.2109375 A 0.6 0.6 0 0 1 17.816406 7.0351562 A 8 8 0 0 0 17.800781 4.1152344 C 17.642781 3.3462351 17.356328 2.7358121 16.986328 2.3828125 C 16.727328 2.1360627 16.462566 2.0133691 16.158203 2.0019531 z M 7.9042969 3.1328125 C 7.9220469 3.1345625 7.9406563 3.1497813 7.9726562 3.1757812 C 8.179656 3.3387811 8.4090158 3.8060786 8.5410156 4.3300781 A 5 5 0 0 1 8.6328125 4.7675781 C 8.6888124 5.0725778 8.7147969 5.4027348 8.7167969 5.8027344 L 8.71875 6.1972656 L 8.6191406 6.34375 L 8.5214844 6.4921875 L 8.2890625 6.4921875 C 8.0200628 6.4921875 7.7511404 6.5267032 7.4941406 6.5957031 L 7.296875 6.6445312 C 7.268875 6.6505312 7.2640469 6.6423905 7.2480469 6.5253906 A 7 7 0 0 1 7.2617188 4.5898438 C 7.3657186 3.9338444 7.6067971 3.3371092 7.8417969 3.1621094 C 7.8697968 3.1411094 7.8865469 3.1310625 7.9042969 3.1328125 z M 16.097656 3.1347656 C 16.115406 3.1331406 16.131656 3.1425625 16.160156 3.1640625 C 16.302156 3.2690624 16.458219 3.5482972 16.574219 3.9042969 C 16.808219 4.6162962 16.874953 5.5943916 16.751953 6.5253906 C 16.735953 6.6423905 16.731125 6.6505312 16.703125 6.6445312 L 16.505859 6.5957031 A 3 3 0 0 0 15.710938 6.4921875 L 15.478516 6.4921875 L 15.380859 6.34375 L 15.28125 6.1972656 L 15.283203 5.8027344 C 15.285203 5.2457349 15.336938 4.8101714 15.460938 4.3261719 C 15.590937 3.8061724 15.822344 3.3387811 16.027344 3.1757812 C 16.059844 3.1497813 16.079906 3.1363906 16.097656 3.1347656 z M 11.777344 10.392578 C 11.466344 10.422578 11.381422 10.432891 11.232422 10.462891 A 4 4 0 0 0 10.439453 10.736328 C 9.6554539 11.120328 9.1142186 11.759048 8.9492188 12.498047 C 8.9162188 12.645047 8.9121094 12.693453 8.9121094 12.939453 C 8.9121094 13.184453 8.9172188 13.237953 8.9492188 13.376953 C 9.1682185 14.342952 10.059939 15.0565 11.210938 15.1875 C 11.460937 15.2145 12.539063 15.2145 12.789062 15.1875 C 13.714062 15.0825 14.509188 14.582906 14.867188 13.878906 C 14.961187 13.690906 15.007781 13.567953 15.050781 13.376953 C 15.082781 13.237953 15.087891 13.184453 15.087891 12.939453 C 15.087891 12.693453 15.083781 12.645047 15.050781 12.498047 C 14.810781 11.424048 13.768233 10.577969 12.490234 10.417969 A 6 6 0 0 0 11.777344 10.392578 z M 8.1621094 10.527344 A 0.85 0.85 0 0 0 7.9648438 10.554688 A 0.84 0.84 0 0 0 7.4238281 11.087891 A 1 1 0 0 0 7.3730469 11.519531 A 0.74 0.74 0 0 0 7.8710938 12.076172 C 8.1720934 12.155172 8.3986564 12.102297 8.5976562 11.904297 A 0.94 0.94 0 0 0 8.8417969 11.53125 C 8.8877968 11.41725 8.890625 11.397328 8.890625 11.236328 L 8.890625 11.064453 L 8.8300781 10.941406 A 0.74 0.74 0 0 0 8.359375 10.548828 A 0.85 0.85 0 0 0 8.1621094 10.527344 z M 15.828125 10.529297 A 0.9 0.9 0 0 0 15.634766 10.550781 A 0.75 0.75 0 0 0 15.169922 10.941406 L 15.109375 11.064453 L 15.109375 11.236328 C 15.109375 11.397328 15.112203 11.41725 15.158203 11.53125 C 15.221203 11.69225 15.285344 11.791297 15.402344 11.904297 C 15.601344 12.102297 15.827907 12.155172 16.128906 12.076172 A 0.72 0.72 0 0 0 16.558594 11.712891 A 0.63 0.63 0 0 0 16.625 11.298828 C 16.572 10.920829 16.350484 10.646781 16.021484 10.550781 A 0.9 0.9 0 0 0 15.828125 10.529297 z M 11.992188 11.160156 C 12.114187 11.160031 12.236453 11.165828 12.314453 11.173828 C 12.741453 11.219828 13.170625 11.371563 13.515625 11.601562 C 13.700625 11.724562 13.962219 11.983344 14.074219 12.152344 C 14.211219 12.362344 14.290172 12.575938 14.326172 12.835938 C 14.342172 12.954937 14.332062 13.045281 14.289062 13.238281 C 14.222063 13.525281 14.013468 13.825156 13.730469 14.035156 A 2.6 2.6 0 0 1 13.15625 14.324219 C 12.83725 14.426219 12.628765 14.444453 11.884766 14.439453 C 11.399766 14.434453 11.313828 14.430297 11.173828 14.404297 C 10.698495 14.314964 10.324781 14.126557 10.050781 13.837891 C 9.8297815 13.604891 9.7278281 13.393781 9.6738281 13.050781 C 9.6488281 12.890781 9.6950626 12.625344 9.7890625 12.402344 C 9.9020624 12.131344 10.194375 11.795562 10.484375 11.601562 A 2.76 2.76 0 0 1 11.669922 11.173828 C 11.747922 11.165328 11.870188 11.160281 11.992188 11.160156 z M 12.349609 12.191406 C 12.244609 12.191406 12.176734 12.217875 12.052734 12.296875 L 11.982422 12.339844 L 11.9375 12.3125 C 11.7555 12.2045 11.722328 12.191359 11.611328 12.193359 A 0.33 0.33 0 0 0 11.451172 12.220703 C 11.342172 12.279703 11.266063 12.428063 11.289062 12.539062 C 11.315062 12.658062 11.419985 12.779906 11.583984 12.878906 C 11.670984 12.931906 11.677641 12.939188 11.681641 12.992188 C 11.684641 13.024187 11.67225 13.114313 11.65625 13.195312 C 11.63925 13.274312 11.626953 13.357859 11.626953 13.380859 C 11.627953 13.442859 11.686094 13.542797 11.746094 13.591797 C 11.799094 13.634797 11.808031 13.636625 11.957031 13.640625 C 12.094031 13.644625 12.123734 13.641234 12.177734 13.615234 C 12.318734 13.546234 12.354734 13.420734 12.302734 13.177734 C 12.259734 12.975735 12.269953 12.943812 12.376953 12.882812 A 0.75 0.75 0 0 0 12.646484 12.619141 A 0.304 0.304 0 0 0 12.5 12.220703 A 0.3 0.3 0 0 0 12.349609 12.191406 z " />
</svg>

<svg xmlns="http://www.w3.org/2000/svg" viewBox="0 0 24 24"><path fill="#44739e" d="M7.728 2.006a1.4 1.4 0 0 0-.569.248c-.478.363-.848 1.134-1.005 2.095a9 9 0 0 0-.099 1.252c0 .454.053 1.034.129 1.435a.6.6 0 0 1 .019.174l-.155.126c-.27.215-.579.547-.791.85a4.6 4.6 0 0 0-.783 1.949c-.043.281-.054.85-.02 1.131.076.649.271 1.198.606 1.7l.109.163-.031.053c-.224.376-.415.92-.504 1.443-.071.413-.079.524-.079 1.078 0 .559.007.669.073 1.056.079.462.24.952.419 1.278.059.106.203.327.22.339.006.002-.012.056-.039.117a6.2 6.2 0 0 0-.457 1.561c-.051.348-.059.46-.059.826 0 .467.026.694.124 1.065L4.85 22h1.231l-.04-.076c-.249-.46-.272-1.313-.058-2.164.098-.394.209-.682.415-1.08l.124-.241v-.148c0-.138-.003-.154-.048-.244a.7.7 0 0 0-.162-.208 1.5 1.5 0 0 1-.32-.453c-.353-.767-.422-1.905-.174-2.876.104-.405.274-.765.454-.962a.66.66 0 0 0 .185-.442.6.6 0 0 0-.187-.435 2.62 2.62 0 0 1-.68-1.441c-.116-.8.095-1.671.574-2.362.47-.678 1.129-1.113 1.866-1.229.165-.027.473-.023.646.009.188.033.306.023.426-.035.15-.07.224-.158.312-.359.077-.179.138-.277.3-.48.195-.242.383-.407.685-.607a3.3 3.3 0 0 1 1.127-.468c.142-.029.208-.033.474-.033s.332.004.474.033a3.4 3.4 0 0 1 1.595.831c.098.091.332.381.407.502.028.047.079.147.11.222.088.201.162.289.312.359.116.056.238.068.419.037a2 2 0 0 1 .786.013c.953.193 1.783.978 2.151 2.031.32.923.229 1.89-.247 2.628a2.4 2.4 0 0 1-.277.349c-.252.268-.252.601-.002.877.411.449.668 1.555.59 2.53-.051.643-.217 1.219-.443 1.545a2 2 0 0 1-.187.216.7.7 0 0 0-.162.208c-.045.09-.048.106-.048.244v.148l.124.241c.206.398.317.686.415 1.08.211.84.192 1.676-.049 2.151-.02.04-.037.078-.037.082s.274.007.61.007h.609l.015-.062.031-.112c.015-.063.047-.25.073-.429a8 8 0 0 0 0-1.048c-.092-.73-.246-1.309-.497-1.856-.027-.061-.045-.115-.039-.117.007-.005.048-.062.091-.127.313-.474.505-1.07.603-1.856.026-.217.026-1.149 0-1.357-.069-.537-.152-.902-.29-1.271a5 5 0 0 0-.275-.583l-.031-.053.109-.163c.335-.502.53-1.051.606-1.7.034-.281.023-.85-.02-1.131a4.6 4.6 0 0 0-.783-1.949 4.4 4.4 0 0 0-.791-.85l-.155-.126a.6.6 0 0 1 .019-.174 8 8 0 0 0-.015-2.92c-.158-.769-.445-1.381-.815-1.734-.296-.282-.598-.402-.96-.379-.83.049-1.499 1.004-1.763 2.508a6 6 0 0 0-.08.605c0 .03-.006.054-.013.054s-.063-.028-.124-.064c-.64-.379-1.352-.582-2.046-.582s-1.406.203-2.046.582a1 1 0 0 1-.124.064c-.007 0-.013-.024-.013-.054 0-.08-.038-.373-.08-.605-.24-1.351-.79-2.245-1.521-2.471-.1-.03-.386-.05-.488-.034m.244 1.169c.207.163.437.631.569 1.155a5 5 0 0 1 .092.438c.056.305.082.634.084 1.034l.002.395-.099.147-.099.148h-.232c-.269 0-.538.034-.795.103l-.198.05c-.028.006-.032-.003-.048-.12a7 7 0 0 1 .013-1.936c.104-.656.345-1.251.58-1.426.056-.042.067-.04.131.012m8.188-.011c.142.105.299.384.415.74.234.712.3 1.69.177 2.621-.016.117-.02.126-.048.12l-.198-.05a3 3 0 0 0-.795-.103h-.232l-.099-.148-.099-.147.002-.395c.002-.557.054-.992.178-1.476.13-.52.362-.988.567-1.151.065-.052.075-.054.132-.011"/><path fill="#44739e" d="M11.777 10.392c-.311.03-.396.041-.545.071a4 4 0 0 0-.793.273c-.784.384-1.324 1.023-1.489 1.762-.033.147-.037.196-.037.442 0 .245.004.298.036.437.219.966 1.11 1.68 2.261 1.811.25.027 1.33.027 1.58 0 .925-.105 1.72-.606 2.078-1.31.094-.188.14-.31.183-.501.032-.139.036-.192.036-.437 0-.246-.004-.295-.037-.442-.24-1.074-1.282-1.92-2.56-2.08a6 6 0 0 0-.713-.026m.537.781c.427.046.856.198 1.201.428.185.123.447.382.559.551.137.21.216.424.252.684.016.119.007.209-.036.402-.067.287-.277.587-.56.797a2.6 2.6 0 0 1-.574.29c-.319.102-.527.12-1.271.115-.485-.005-.571-.009-.711-.035q-.713-.134-1.124-.567c-.221-.233-.322-.445-.376-.788-.025-.16.021-.424.115-.647.113-.271.406-.608.696-.802a2.76 2.76 0 0 1 1.185-.427c.156-.017.488-.017.644-.001"/><path fill="#44739e" d="M11.451 12.221c-.109.059-.185.208-.162.319.026.119.131.24.295.339.087.053.093.06.097.113.003.032-.008.122-.024.203-.017.079-.03.162-.03.185.001.062.059.162.119.211.053.043.063.045.212.049.137.004.166.001.22-.025.141-.069.177-.195.125-.438-.043-.202-.034-.234.073-.295a.75.75 0 0 0 .27-.262.304.304 0 0 0-.146-.4.3.3 0 0 0-.151-.028c-.105 0-.172.025-.296.104l-.07.044-.045-.027c-.182-.108-.215-.121-.326-.119a.33.33 0 0 0-.161.027m-3.486-1.667a.84.84 0 0 0-.541.533 1 1 0 0 0-.051.433.74.74 0 0 0 .499.556c.301.079.527.027.726-.171a.94.94 0 0 0 .243-.373c.046-.114.049-.134.049-.295l.001-.172-.06-.123a.74.74 0 0 0-.471-.394.85.85 0 0 0-.395.006m7.669-.004a.75.75 0 0 0-.465.392l-.06.123.001.172c0 .161.003.181.049.295.063.161.126.26.243.373.199.198.425.25.726.171a.72.72 0 0 0 .431-.363.63.63 0 0 0 .066-.415c-.053-.378-.274-.652-.603-.748a.9.9 0 0 0-.388 0"/></svg>
